X:1
T:Can Jesus See and Hear?
T:Can Jesus See and Hear?
T:Asa Hull
T:Eden Reeder Latta, 1895
T:Public Domain Courtesy of the Cyber Hymnal™
C:Asa Hull
Z:Public Domain
Z:Courtesy of the Cyber Hymnal™
%%score ( 1 2 ) 3
L:1/8
Q:1/4=95
M:3/4
K:C
V:1 treble 
V:2 treble 
V:3 bass 
V:1
 [EG][CE] [DF] | [EG]3 [EG] [FA][EG] | [EG]3 [EG] [EG][DF] | [DF]3 [B,D] [FA][EG] | [EG]3 | %5
w: 1.~When lit- tle|child- ren do the|wrong, And do not|wish the Lord’s to|be—|
w: 2.~When lit- tle|child- ren false- ly|speak, Or take in|vain that Name so|dear,|
w: 3.~When lit- tle|child- ren, in their|hearts, Give e- vil|thoughts a chance to|grow,|
w: 4.~Yes, Je- sus|sees our ev- ery|deed, And hears each|word our lips let|fall;|
 [EG][CE] [DF] | [EG]3 [Ec] [GB][FA] | [FA]3 [FA] [EG][Ec] | [DB]3 [DB] [FA][FB] | c3 |] %10
w: Does He be-|hold their ev- ery|deed? Can Je- sus|see? Can Je- sus|see?|
w: Though all un-|heard, their words may|seem, Can Je- sus|hear? Can Je- sus|hear?|
w: Ere yet their|bit- ter fruits they|bear, Can Je- sus|know? Can Je- sus|know?|
w: He knows our|ev- ery se- cret|thought, And He by|these will judge us|all.|
V:2
 x3 | x6 | x6 | x6 | x3 | x3 | x6 | x6 | x6 | (EF E) |] %10
V:3
 z3 | z ([C,G,C] [C,G,C]) z3 | z ([C,G,C] [C,G,C]) z3 | z ([G,,G,] [G,,G,])[G,,G,] [G,,G,][G,,G,] | %4
 ([C,E,G,][C,E,G,] [C,E,G,]) | z3 | z ([C,G,C] [C,G,C]) z3 | %7
 z ([F,A,C] [F,A,C])[F,A,C] [G,C][G,C] | z ([G,,G,] [G,,G,])[G,,G,] [G,,G,][G,,G,] | %9
 ([C,G,][C,A,] !fermata![C,G,]) |] %10

